X: 20762
Q: "Lively."
M: C
L: 1/8
K: G
(FEFG) A2d2 | (BA)(Bc) d2(dc) | B2d2 g2B2 | c4 Hz2(e>d) |\
d2d2 d2(B>A) |
E2(FG) A2F2 | B4 z2(AB) | G2(AB) c2A2 | d4 z2e2 |\
(ed)(ed) ce3 | d2B2 Hg2(dc) | B2(Bc) A3B | G6 |]


